2017/images/patros/brazil-js.svg

<?xml version="1.0" standalone="no"?>
<!-- Generator: Adobe Fireworks CS5, Export SVG Extension by Aaron Beall (http://fireworks.abeall.com) . Version: 0.6.1  -->
<!DOCTYPE svg PUBLIC "-//W3C//DTD SVG 1.1//EN" "http://www.w3.org/Graphics/SVG/1.1/DTD/svg11.dtd">
<svg id="Untitled-Page%201" viewBox="0 0 180 120" style="background-color:#ffffff00" version="1.1"
	xmlns="http://www.w3.org/2000/svg" xmlns:xlink="http://www.w3.org/1999/xlink" xml:space="preserve"
	x="0px" y="0px" width="180px" height="120px"
>
	<g id="Layer%201">
		<g>
			<path d="M 128.0271 90 L 125.7845 86.2721 C 130.8904 83.7562 130.7948 80.9601 130.7948 78.9565 L 130.7948 48.062 L 136.521 48.062 L 136.521 78.3973 C 136.521 85.8531 131.9403 88.136 128.0271 90 L 128.0271 90 ZM 155.8461 53.0945 C 154.51 52.582 152.8877 52.0228 151.4081 52.0228 C 149.118 52.0228 147.1616 53.0481 147.1616 55.238 C 147.1616 58.0339 148.9269 59.6183 152.8877 61.1094 C 157.9936 63.1132 161 65.2567 161 70.3356 C 161 75.1353 157.1823 79.8882 150.2155 79.8882 C 145.3002 79.8882 141.1012 77.5584 139.8602 76.8596 L 141.8646 72.5257 C 142.8666 73.0849 143.821 73.5976 144.823 74.017 C 146.4933 74.7627 148.4497 75.5079 149.8338 75.5079 C 153.2219 75.5079 154.7966 73.7841 154.7966 70.9416 C 154.7966 68.1459 152.9353 67.074 150.0244 65.9555 C 144.3458 63.6257 140.9101 61.4822 140.9101 56.0303 C 140.9101 51.4637 145.1571 47.6426 151.0744 47.6426 C 155.56 47.6426 159.4728 49.5065 160.4752 50.1123 L 158.1367 54.1663 C 157.4209 53.7935 156.6575 53.4207 155.8461 53.0945 L 155.8461 53.0945 Z" fill="#ffffff"/>
			<path d="M 35.0339 63.1596 C 39.8057 64.511 42.0962 67.2137 42.0962 70.8019 C 42.0962 76.6267 37.5151 79.6553 28.4009 79.6553 C 26.5875 79.6553 20.3839 79.6089 19 79.6089 L 19 48.062 C 20.1453 48.062 26.9214 47.9688 28.9256 47.9688 C 36.9426 47.9688 41.1418 51.1375 41.1418 56.17 C 41.1418 59.3387 39.0423 61.855 35.0339 63.1596 L 35.0339 63.1596 ZM 28.8781 53.0481 C 28.0667 53.0481 27.2556 53.0481 26.8739 53.0945 L 26.8739 61.2959 L 29.0689 61.2959 C 31.0253 61.2959 32.8864 60.3171 32.8864 57.1952 C 32.8864 54.6324 31.6936 53.0481 28.8781 53.0481 L 28.8781 53.0481 ZM 28.9736 66.0954 C 28.1145 66.0954 27.3033 66.1418 26.8739 66.1887 L 26.8739 74.5762 L 29.212 74.5762 C 31.7889 74.5762 33.7931 73.6908 33.7931 70.6154 C 33.7931 68.2856 32.6001 66.0954 28.9736 66.0954 L 28.9736 66.0954 ZM 58.8908 63.4394 C 58.4614 63.2065 57.6978 62.9267 56.648 62.9267 C 55.3119 62.9267 52.9736 64.3714 52.9736 67.7264 L 52.9736 79.6089 L 45.4338 79.6089 L 45.4338 67.4935 C 45.4338 60.131 42.8094 57.7543 42.8094 57.7543 L 48.8697 55.8906 C 48.8697 55.8906 50.3489 57.3349 51.0172 60.0841 C 52.5919 57.1019 54.7869 55.8906 57.7456 55.8906 C 59.0817 55.8906 60.1314 56.17 60.8473 56.4031 L 58.8908 63.4394 L 58.8908 63.4394 ZM 77.4521 79.9815 C 77.4521 79.9815 75.7341 78.3973 75.1616 75.3219 C 74.1118 78.2108 72.0597 79.8882 68.6238 79.8882 C 62.3727 79.8882 59.414 75.275 59.414 68.2856 C 59.414 61.156 64.2815 55.8906 71.3918 55.8906 C 75.3524 55.8906 80.7924 57.2416 80.8878 57.2416 L 80.8878 68.3788 C 80.8878 75.7413 83.5125 78.1175 83.5125 78.1175 L 77.4521 79.9815 L 77.4521 79.9815 ZM 73.3482 61.6685 C 72.9186 61.4822 71.9643 61.2959 71.3918 61.2959 C 68.2899 61.2959 67.431 64.045 67.431 67.8197 C 67.431 71.2678 67.5741 74.4829 69.8646 74.4829 C 71.8213 74.4829 73.3482 70.988 73.3482 67.074 L 73.3482 61.6685 L 73.3482 61.6685 ZM 102.0249 74.25 L 102.0249 79.6089 L 83.7008 79.6089 L 83.7008 75.5079 L 92.7676 61.7151 C 91.5745 61.7618 90.477 61.8084 89.427 61.8084 L 85.037 61.8084 L 84.0823 56.4031 L 101.5957 56.4031 L 101.5957 60.9231 L 93.0062 74.3432 C 93.8171 74.2968 94.6284 74.25 95.4873 74.25 L 102.0249 74.25 L 102.0249 74.25 ZM 109.9443 79.795 C 106.3656 79.795 103.884 77.8382 103.884 74.5298 L 103.884 56.2166 L 111.4235 56.2166 L 111.4235 72.4329 C 111.4235 73.8305 111.8532 74.25 112.7596 74.25 C 113.2368 74.25 113.8571 74.1103 114.0002 74.0635 L 114.6685 78.6767 C 114.573 78.7699 112.521 79.795 109.9443 79.795 L 109.9443 79.795 ZM 122.3498 79.795 C 117.9597 79.795 116.0508 77.1389 116.0508 73.8305 L 116.0508 47.0834 L 123.5903 45.8252 L 123.5903 72.2464 C 123.5903 73.7373 124.0676 74.25 125.4992 74.25 C 126.1671 74.25 127.1215 74.1103 127.8373 73.9706 L 128.5532 78.5834 C 127.5987 79.0029 125.1175 79.795 122.3498 79.795 L 122.3498 79.795 Z" fill="#ffffff"/>
			<path d="M 111.0956 53.8406 L 107.5313 51.6235 L 103.9109 53.7517 L 104.9689 49.7565 L 101.7773 47.0519 L 105.9951 46.7999 L 107.643 43 L 109.1921 46.8393 L 113.4019 47.1955 L 110.1412 49.8204 L 111.0956 53.8406 L 111.0956 53.8406 Z" fill="#ffffff"/>
		</g>
	</g>
</svg>

<svg style="background-color:#ffffff00" xmlns="http://www.w3.org/2000/svg" width="180" height="120"><g fill="#fff"><path d="M128.027 90l-2.242-3.728c5.105-2.516 5.01-5.312 5.01-7.316V48.063h5.726v30.335c0 7.456-4.58 9.739-8.494 11.603zm27.82-36.906c-1.337-.512-2.96-1.071-4.439-1.071-2.29 0-4.246 1.025-4.246 3.215 0 2.796 1.765 4.38 5.726 5.871 5.106 2.004 8.112 4.148 8.112 9.227 0 4.8-3.818 9.552-10.785 9.552-4.915 0-9.114-2.33-10.355-3.028l2.005-4.334c1.002.559 1.956 1.072 2.958 1.491 1.67.746 3.627 1.49 5.01 1.49 3.389 0 4.964-1.723 4.964-4.565 0-2.796-1.862-3.868-4.773-4.986-5.678-2.33-9.114-4.474-9.114-9.926 0-4.566 4.247-8.387 10.164-8.387 4.486 0 8.399 1.864 9.401 2.47l-2.338 4.053a25.776 25.776 0 0 0-2.29-1.072z"/><path d="M35.034 63.16c4.772 1.351 7.062 4.054 7.062 7.642 0 5.825-4.58 8.853-13.695 8.853-1.814 0-8.017-.046-9.401-.046V48.062c1.145 0 7.921-.093 9.926-.093 8.017 0 12.216 3.169 12.216 8.201 0 3.169-2.1 5.685-6.108 6.99zm-6.156-10.112c-.811 0-1.622 0-2.004.046v8.202h2.195c1.956 0 3.817-.979 3.817-4.1 0-2.564-1.192-4.148-4.008-4.148zm.096 13.047c-.86 0-1.67.047-2.1.094v8.387h2.338c2.577 0 4.581-.885 4.581-3.96 0-2.33-1.193-4.52-4.82-4.52zM58.89 63.44c-.43-.233-1.193-.512-2.243-.512-1.336 0-3.674 1.444-3.674 4.8V79.61h-7.54V67.494c0-7.363-2.625-9.74-2.625-9.74l6.06-1.863s1.48 1.444 2.148 4.193c1.575-2.982 3.77-4.193 6.729-4.193a9.83 9.83 0 0 1 3.101.512l-1.956 7.036zm18.561 16.542s-1.718-1.584-2.29-4.66c-1.05 2.89-3.102 4.567-6.538 4.567-6.251 0-9.21-4.613-9.21-11.602 0-7.13 4.867-12.395 11.978-12.395 3.96 0 9.4 1.35 9.496 1.35V68.38c0 7.362 2.624 9.739 2.624 9.739l-6.06 1.864zM73.348 61.67c-.43-.187-1.384-.373-1.956-.373-3.102 0-3.961 2.749-3.961 6.524 0 3.448.143 6.663 2.434 6.663 1.956 0 3.483-3.495 3.483-7.409V61.67zm28.677 12.581v5.359H83.7v-4.101l9.067-13.793c-1.194.047-2.291.093-3.341.093h-4.39l-.955-5.405h17.514v4.52l-8.59 13.42c.811-.046 1.622-.093 2.481-.093h6.538zm7.92 5.545c-3.58 0-6.061-1.957-6.061-5.265V56.217h7.54v16.216c0 1.397.43 1.817 1.336 1.817.477 0 1.097-.14 1.24-.186l.668 4.613c-.095.093-2.147 1.118-4.724 1.118zm12.405 0c-4.39 0-6.3-2.656-6.3-5.965V47.084l7.54-1.258v26.421c0 1.491.478 2.004 1.91 2.004.667 0 1.621-.14 2.337-.28l.716 4.613c-.954.42-3.435 1.212-6.203 1.212zM111.096 53.84l-3.565-2.217-3.62 2.129 1.058-3.995-3.192-2.705 4.218-.252 1.648-3.8 1.55 3.84 4.209.355-3.26 2.625.954 4.02z"/></g></svg>
